X:5
T: Flanagans' Banshee
S: Flanagan Brothers
Z: B.Black
R: reel
M: 4/4
L: 1/8
K: G
GA | B2 BA BAGA | BAGE D2 DE | G2 FG A2 GA |\
BddB A2 GA |
B2 BA BAGA | BAGE D2 DE | G2 FG A2 GA | BGGF G2 :|
GA | BddB d2 Bd | egge g2 ge | d2 ge dBGA |\
BAAG A2 GA |
BddB d2 Bd | egge g2 ge | d2 ge dBAc | BGGF G2 :|
